X: 121
T:Haymakers, The
T:to "Highland Lilt", Neal 1726
M:C
L:1/8
C:Neal
O:England
H:1726
Z:Elizabeth Scarlett
K:Amin
e |: "Am"A/A/A eA "C"c>de^f | "G"gddg "Em"G/G/G dB | "Am"A/A/A eA "C"c>de^f | "G"gd"Em"gB "Am"A3e :|
|: "Am"A/A/A a2 g>fe^f | "G"gdeg "Em"G/G/G dB |  "Am"A/A/A a2 "C"g>fe^f | "G"gd"Em"gB "Am"A/A/A A2 :|

